; G-Code generated by Simplify3D(R) Version 4.0.0
; Feb 16, 2018 at 7:11:57 AM
; Settings Summary
;   processName,Process1
;   applyToModels,mPCIe_spacer,mPCIe_spacer(2),mPCIe_spacer(3),mPCIe_spacer(4)
;   profileName,Prusa i3 (modified)
;   profileVersion,2016-06-08 08:00:00
;   baseProfile,
;   printMaterial,ABS
;   printQuality,Fast
;   printExtruders,
;   extruderName,Primary Extruder
;   extruderToolheadNumber,0
;   extruderDiameter,0.4
;   extruderAutoWidth,1
;   extruderWidth,0.48
;   extrusionMultiplier,1.05
;   extruderUseRetract,1
;   extruderRetractionDistance,1.5
;   extruderExtraRestartDistance,0
;   extruderRetractionZLift,0
;   extruderRetractionSpeed,1500
;   extruderUseCoasting,0
;   extruderCoastingDistance,0.2
;   extruderUseWipe,1
;   extruderWipeDistance,1.6
;   primaryExtruder,0
;   layerHeight,0.3
;   topSolidLayers,4
;   bottomSolidLayers,4
;   perimeterOutlines,3
;   printPerimetersInsideOut,1
;   startPointOption,2
;   startPointOriginX,0
;   startPointOriginY,0
;   sequentialIslands,1
;   spiralVaseMode,0
;   firstLayerHeightPercentage,100
;   firstLayerWidthPercentage,100
;   firstLayerUnderspeed,0.6
;   useRaft,0
;   raftExtruder,0
;   raftTopLayers,3
;   raftBaseLayers,2
;   raftOffset,3
;   raftSeparationDistance,0.14
;   raftTopInfill,100
;   aboveRaftSpeedMultiplier,0.3
;   useSkirt,1
;   skirtExtruder,0
;   skirtLayers,1
;   skirtOutlines,2
;   skirtOffset,1.8
;   usePrimePillar,0
;   primePillarExtruder,999
;   primePillarWidth,12
;   primePillarLocation,7
;   primePillarSpeedMultiplier,1
;   useOozeShield,0
;   oozeShieldExtruder,999
;   oozeShieldOffset,2
;   oozeShieldOutlines,1
;   oozeShieldSidewallShape,1
;   oozeShieldSidewallAngle,30
;   oozeShieldSpeedMultiplier,1
;   infillExtruder,0
;   internalInfillPattern,Grid
;   externalInfillPattern,Rectilinear
;   infillPercentage,50
;   outlineOverlapPercentage,5
;   infillExtrusionWidthPercentage,100
;   minInfillLength,2
;   infillLayerInterval,1
;   internalInfillAngles,45,-45
;   overlapInternalInfillAngles,1
;   externalInfillAngles,45,-45
;   generateSupport,0
;   supportExtruder,0
;   supportInfillPercentage,30
;   supportExtraInflation,0
;   supportBaseLayers,0
;   denseSupportExtruder,0
;   denseSupportLayers,0
;   denseSupportInfillPercentage,70
;   supportLayerInterval,1
;   supportHorizontalPartOffset,0.2
;   supportUpperSeparationLayers,1
;   supportLowerSeparationLayers,1
;   supportType,1
;   supportGridSpacing,4
;   maxOverhangAngle,45
;   supportAngles,0
;   temperatureName,Primary Extruder,Heated Bed
;   temperatureNumber,0,1
;   temperatureSetpointCount,1,2
;   temperatureSetpointLayers,1,1,3
;   temperatureSetpointTemperatures,220,100,90
;   temperatureStabilizeAtStartup,1,1
;   temperatureHeatedBed,0,1
;   temperatureRelayBetweenLayers,0,0
;   temperatureRelayBetweenLoops,0,0
;   fanLayers,1
;   fanSpeeds,0
;   blipFanToFullPower,1
;   adjustSpeedForCooling,1
;   minSpeedLayerTime,15
;   minCoolingSpeedSlowdown,20
;   increaseFanForCooling,0
;   minFanLayerTime,45
;   maxCoolingFanSpeed,100
;   increaseFanForBridging,0
;   bridgingFanSpeed,100
;   use5D,1
;   relativeEdistances,1
;   allowEaxisZeroing,1
;   independentExtruderAxes,0
;   includeM10123,0
;   stickySupport,1
;   applyToolheadOffsets,0
;   gcodeXoffset,0
;   gcodeYoffset,0
;   gcodeZoffset,0
;   overrideMachineDefinition,1
;   machineTypeOverride,0
;   strokeXoverride,200
;   strokeYoverride,200
;   strokeZoverride,175
;   originOffsetXoverride,0
;   originOffsetYoverride,0
;   originOffsetZoverride,0
;   homeXdirOverride,-1
;   homeYdirOverride,-1
;   homeZdirOverride,-1
;   flipXoverride,1
;   flipYoverride,-1
;   flipZoverride,1
;   toolheadOffsets,0,0|0,0|0,0|0,0|0,0|0,0
;   overrideFirmwareConfiguration,1
;   firmwareTypeOverride,RepRap (Marlin/Repetier/Sprinter)
;   GPXconfigOverride,r2
;   baudRateOverride,250000
;   overridePrinterModels,1
;   printerModelsOverride
;   startingGcode,G28 ; home all,G92 E0,G1 Z0.1 F1000,G1 X8.0 F2000,G1 Y60.0 E4.0 F1000.0 ; prime,G1 Y100.0 E8.5 F1000.0 ; prime,G92 E0
;   layerChangeGcode,
;   retractionGcode,
;   toolChangeGcode,
;   endingGcode,M104 S0 ; turn off extruder,M140 S0 ; turn off bed,G91 ; use relative coordinates,G1 Z0.6 F5000 ; lift nozzle by 0.6mm,G90 ; use absolute coordinates,G28 X0 ; home X axis,G1 Y195 ; move Y axis to end position,M84 ; disable motors,M107 ; turn off fan
;   exportFileFormat,gcode
;   celebration,0
;   celebrationSong,Random Song
;   postProcessing,
;   defaultSpeed,3600
;   outlineUnderspeed,1
;   solidInfillUnderspeed,0.6
;   supportUnderspeed,0.8
;   rapidXYspeed,4800
;   rapidZspeed,1000
;   minBridgingArea,50
;   bridgingExtraInflation,0
;   bridgingExtrusionMultiplier,1
;   bridgingSpeedMultiplier,1
;   useFixedBridgingAngle,0
;   fixedBridgingAngle,0
;   applyBridgingToPerimeters,0
;   filamentDiameters,1.75|1.75|1.75|1.75|1.75|1.75
;   filamentPricesPerKg,215|215|215|215|215|215
;   filamentDensities,1.25|1.25|1.25|1.25|1.25|1.25
;   useMinPrintHeight,0
;   minPrintHeight,0
;   useMaxPrintHeight,0
;   maxPrintHeight,0
;   useDiaphragm,0
;   diaphragmLayerInterval,20
;   robustSlicing,1
;   mergeAllIntoSolid,0
;   onlyRetractWhenCrossingOutline,1
;   retractBetweenLayers,0
;   useRetractionMinTravel,1
;   retractionMinTravel,3
;   retractWhileWiping,0
;   onlyWipeOutlines,1
;   avoidCrossingOutline,1
;   maxMovementDetourFactor,3
;   toolChangeRetractionDistance,12
;   toolChangeExtraRestartDistance,-0.5
;   toolChangeRetractionSpeed,600
;   externalThinWallType,0
;   internalThinWallType,2
;   thinWallAllowedOverlapPercentage,10
;   singleExtrusionMinLength,1
;   singleExtrusionMinPrintingWidthPercentage,50
;   singleExtrusionMaxPrintingWidthPercentage,200
;   singleExtrusionEndpointExtension,0.2
;   horizontalSizeCompensation,0
G90
M83
M106 S255
G4 P500
M106 S0
M140 S100
M190 S100
M104 S220 T0
M109 S220 T0
G28 ; home all
G92 E0
G1 Z0.1 F1000
G1 X8.0 F2000
G1 Y60.0 E4.0 F1000.0 ; prime
G1 Y100.0 E8.5 F1000.0 ; prime
G92 E0
G1 E-1.5000 F1500
G1 Z0.300 F1000
; process Process1
; layer 1, Z = 0.300
T0
; tool H0.300 W0.480
; skirt
G1 X96.029 Y81.928 F4800
G1 E1.5000 F450
G1 X96.530 Y81.372 E0.0471 F720
G1 X96.557 Y81.345 E0.0024
G1 X96.725 Y81.194 E0.0142
G1 X96.754 Y81.170 E0.0024
G1 X97.360 Y80.730 E0.0471
G1 X97.392 Y80.709 E0.0024
G1 X97.588 Y80.596 E0.0142
G1 X97.622 Y80.579 E0.0024
G1 X98.280 Y80.286 E0.0453
G1 X98.306 Y80.275 E0.0018
G1 X98.466 Y80.219 E0.0107
G1 X98.493 Y80.210 E0.0018
G1 X98.910 Y80.099 E0.0271
G1 X98.938 Y80.092 E0.0018
G1 X99.104 Y80.061 E0.0107
G1 X99.132 Y80.057 E0.0018
G1 X99.821 Y79.985 E0.0435
G1 X99.849 Y79.983 E0.0018
G1 X100.019 Y79.979 E0.0107
G1 X100.047 Y79.979 E0.0018
G1 X100.478 Y80.002 E0.0271
G1 X100.506 Y80.004 E0.0018
G1 X100.674 Y80.026 E0.0107
G1 X100.702 Y80.031 E0.0018
G1 X101.407 Y80.181 E0.0453
G1 X101.444 Y80.191 E0.0024
G1 X101.659 Y80.261 E0.0142
G1 X101.694 Y80.274 E0.0024
G1 X102.353 Y80.567 E0.0453
G1 X102.378 Y80.580 E0.0018
G1 X102.527 Y80.661 E0.0107
G1 X102.551 Y80.675 E0.0018
G1 X102.913 Y80.910 E0.0271
G1 X102.936 Y80.927 E0.0018
G1 X103.071 Y81.030 E0.0107
G1 X103.093 Y81.048 E0.0018
G1 X103.628 Y81.530 E0.0453
G1 X103.655 Y81.557 E0.0024
G1 X103.806 Y81.725 E0.0142
G1 X103.830 Y81.754 E0.0024
G1 X104.270 Y82.360 E0.0471
G1 X104.291 Y82.392 E0.0024
G1 X104.404 Y82.588 E0.0142
G1 X104.421 Y82.622 E0.0024
G1 X104.714 Y83.280 E0.0453
G1 X104.725 Y83.306 E0.0018
G1 X104.781 Y83.466 E0.0107
G1 X104.790 Y83.493 E0.0018
G1 X104.901 Y83.910 E0.0271
G1 X104.908 Y83.937 E0.0018
G1 X104.939 Y84.104 E0.0107
G1 X104.943 Y84.132 E0.0018
G1 X105.018 Y84.849 E0.0453
G1 X105.020 Y84.887 E0.0024
G1 X105.020 Y85.113 E0.0142
G1 X105.018 Y85.151 E0.0024
G1 X104.940 Y85.896 E0.0471
G1 X104.934 Y85.933 E0.0024
G1 X104.887 Y86.154 E0.0142
G1 X104.877 Y86.191 E0.0024
G1 X104.646 Y86.903 E0.0471
G1 X104.632 Y86.938 E0.0024
G1 X104.540 Y87.145 E0.0142
G1 X104.523 Y87.179 E0.0024
G1 X104.148 Y87.827 E0.0471
G1 X104.128 Y87.859 E0.0024
G1 X103.995 Y88.042 E0.0142
G1 X103.971 Y88.072 E0.0024
G1 X103.470 Y88.628 E0.0471
G1 X103.443 Y88.655 E0.0024
G1 X103.275 Y88.806 E0.0142
G1 X103.246 Y88.830 E0.0024
G1 X102.640 Y89.270 E0.0471
G1 X102.608 Y89.291 E0.0024
G1 X102.412 Y89.404 E0.0142
G1 X102.378 Y89.421 E0.0024
G1 X101.720 Y89.714 E0.0453
G1 X101.694 Y89.725 E0.0018
G1 X101.534 Y89.781 E0.0107
G1 X101.507 Y89.790 E0.0018
G1 X101.090 Y89.901 E0.0271
G1 X101.063 Y89.908 E0.0018
G1 X100.896 Y89.939 E0.0107
G1 X100.868 Y89.943 E0.0018
G1 X100.364 Y89.996 E0.0318
G1 X100.478 Y90.002 E0.0072
G1 X100.506 Y90.004 E0.0018
G1 X100.674 Y90.026 E0.0107
G1 X100.702 Y90.031 E0.0018
G1 X101.407 Y90.181 E0.0453
G1 X101.444 Y90.191 E0.0024
G1 X101.659 Y90.261 E0.0142
G1 X101.694 Y90.274 E0.0024
G1 X102.378 Y90.579 E0.0471
G1 X102.412 Y90.596 E0.0024
G1 X102.608 Y90.709 E0.0142
G1 X102.640 Y90.730 E0.0024
G1 X103.223 Y91.153 E0.0453
G1 X103.245 Y91.171 E0.0018
G1 X103.374 Y91.281 E0.0107
G1 X103.395 Y91.300 E0.0018
G1 X103.700 Y91.605 E0.0271
G1 X103.719 Y91.626 E0.0018
G1 X103.829 Y91.755 E0.0107
G1 X103.847 Y91.777 E0.0018
G1 X104.270 Y92.360 E0.0453
G1 X104.291 Y92.392 E0.0024
G1 X104.404 Y92.588 E0.0142
G1 X104.421 Y92.622 E0.0024
G1 X104.714 Y93.280 E0.0453
G1 X104.725 Y93.306 E0.0018
G1 X104.781 Y93.466 E0.0107
G1 X104.790 Y93.493 E0.0018
G1 X104.901 Y93.910 E0.0271
G1 X104.908 Y93.937 E0.0018
G1 X104.939 Y94.104 E0.0107
G1 X104.943 Y94.132 E0.0018
G1 X105.018 Y94.849 E0.0453
G1 X105.020 Y94.887 E0.0024
G1 X105.020 Y95.113 E0.0142
G1 X105.018 Y95.151 E0.0024
G1 X104.943 Y95.868 E0.0453
G1 X104.939 Y95.896 E0.0018
G1 X104.908 Y96.063 E0.0107
G1 X104.901 Y96.090 E0.0018
G1 X104.790 Y96.507 E0.0271
G1 X104.781 Y96.534 E0.0018
G1 X104.725 Y96.694 E0.0107
G1 X104.714 Y96.720 E0.0018
G1 X104.421 Y97.378 E0.0453
G1 X104.404 Y97.412 E0.0024
G1 X104.291 Y97.608 E0.0142
G1 X104.270 Y97.640 E0.0024
G1 X103.830 Y98.246 E0.0471
G1 X103.806 Y98.275 E0.0024
G1 X103.655 Y98.443 E0.0142
G1 X103.628 Y98.470 E0.0024
G1 X103.072 Y98.971 E0.0471
G1 X103.042 Y98.995 E0.0024
G1 X102.859 Y99.128 E0.0142
G1 X102.827 Y99.148 E0.0024
G1 X102.179 Y99.523 E0.0471
G1 X102.145 Y99.540 E0.0024
G1 X101.938 Y99.632 E0.0142
G1 X101.903 Y99.646 E0.0024
G1 X101.191 Y99.877 E0.0471
G1 X101.154 Y99.887 E0.0024
G1 X100.933 Y99.934 E0.0142
G1 X100.896 Y99.940 E0.0024
G1 X100.364 Y99.996 E0.0336
G1 X100.478 Y100.002 E0.0072
G1 X100.506 Y100.004 E0.0018
G1 X100.674 Y100.026 E0.0107
G1 X100.702 Y100.031 E0.0018
G1 X101.407 Y100.181 E0.0453
G1 X101.444 Y100.191 E0.0024
G1 X101.659 Y100.261 E0.0142
G1 X101.694 Y100.274 E0.0024
G1 X102.378 Y100.579 E0.0471
G1 X102.412 Y100.596 E0.0024
G1 X102.608 Y100.709 E0.0142
G1 X102.640 Y100.730 E0.0024
G1 X103.223 Y101.153 E0.0453
G1 X103.245 Y101.171 E0.0018
G1 X103.374 Y101.281 E0.0107
G1 X103.395 Y101.300 E0.0018
G1 X103.700 Y101.605 E0.0271
G1 X103.719 Y101.626 E0.0018
G1 X103.829 Y101.755 E0.0107
G1 X103.847 Y101.777 E0.0018
G1 X104.270 Y102.360 E0.0453
G1 X104.291 Y102.392 E0.0024
G1 X104.404 Y102.588 E0.0142
G1 X104.421 Y102.622 E0.0024
G1 X104.714 Y103.280 E0.0453
G1 X104.725 Y103.306 E0.0018
G1 X104.781 Y103.466 E0.0107
G1 X104.790 Y103.493 E0.0018
G1 X104.901 Y103.910 E0.0271
G1 X104.908 Y103.937 E0.0018
G1 X104.939 Y104.104 E0.0107
G1 X104.943 Y104.132 E0.0018
G1 X105.018 Y104.849 E0.0453
G1 X105.020 Y104.887 E0.0024
G1 X105.020 Y105.113 E0.0142
G1 X105.018 Y105.151 E0.0024
G1 X104.943 Y105.868 E0.0453
G1 X104.939 Y105.896 E0.0018
G1 X104.908 Y106.063 E0.0107
G1 X104.901 Y106.090 E0.0018
G1 X104.790 Y106.507 E0.0271
G1 X104.781 Y106.534 E0.0018
G1 X104.725 Y106.694 E0.0107
G1 X104.714 Y106.720 E0.0018
G1 X104.421 Y107.378 E0.0453
G1 X104.404 Y107.412 E0.0024
G1 X104.291 Y107.608 E0.0142
G1 X104.270 Y107.640 E0.0024
G1 X103.830 Y108.246 E0.0471
G1 X103.806 Y108.275 E0.0024
G1 X103.655 Y108.443 E0.0142
G1 X103.628 Y108.470 E0.0024
G1 X103.072 Y108.971 E0.0471
G1 X103.042 Y108.995 E0.0024
G1 X102.859 Y109.128 E0.0142
G1 X102.827 Y109.148 E0.0024
G1 X102.179 Y109.523 E0.0471
G1 X102.145 Y109.540 E0.0024
G1 X101.938 Y109.632 E0.0142
G1 X101.903 Y109.646 E0.0024
G1 X101.191 Y109.877 E0.0471
G1 X101.154 Y109.887 E0.0024
G1 X100.933 Y109.934 E0.0142
G1 X100.896 Y109.940 E0.0024
G1 X100.364 Y109.996 E0.0336
G1 X100.478 Y110.002 E0.0072
G1 X100.506 Y110.004 E0.0018
G1 X100.674 Y110.026 E0.0107
G1 X100.702 Y110.031 E0.0018
G1 X101.407 Y110.181 E0.0453
G1 X101.444 Y110.191 E0.0024
G1 X101.659 Y110.261 E0.0142
G1 X101.694 Y110.274 E0.0024
G1 X102.378 Y110.579 E0.0471
G1 X102.412 Y110.596 E0.0024
G1 X102.608 Y110.709 E0.0142
G1 X102.640 Y110.730 E0.0024
G1 X103.223 Y111.153 E0.0453
G1 X103.245 Y111.171 E0.0018
G1 X103.374 Y111.281 E0.0107
G1 X103.395 Y111.300 E0.0018
G1 X103.700 Y111.605 E0.0271
G1 X103.719 Y111.626 E0.0018
G1 X103.829 Y111.755 E0.0107
G1 X103.847 Y111.777 E0.0018
G1 X104.270 Y112.360 E0.0453
G1 X104.291 Y112.392 E0.0024
G1 X104.404 Y112.588 E0.0142
G1 X104.421 Y112.622 E0.0024
G1 X104.714 Y113.280 E0.0453
G1 X104.725 Y113.306 E0.0018
G1 X104.781 Y113.466 E0.0107
G1 X104.790 Y113.493 E0.0018
G1 X104.901 Y113.910 E0.0271
G1 X104.908 Y113.937 E0.0018
G1 X104.939 Y114.104 E0.0107
G1 X104.943 Y114.132 E0.0018
G1 X105.018 Y114.849 E0.0453
G1 X105.020 Y114.887 E0.0024
G1 X105.020 Y115.113 E0.0142
G1 X105.018 Y115.151 E0.0024
G1 X104.943 Y115.868 E0.0453
G1 X104.939 Y115.896 E0.0018
G1 X104.908 Y116.063 E0.0107
G1 X104.901 Y116.090 E0.0018
G1 X104.790 Y116.507 E0.0271
G1 X104.781 Y116.534 E0.0018
G1 X104.725 Y116.694 E0.0107
G1 X104.714 Y116.720 E0.0018
G1 X104.421 Y117.378 E0.0453
G1 X104.404 Y117.412 E0.0024
G1 X104.291 Y117.608 E0.0142
G1 X104.270 Y117.640 E0.0024
G1 X103.830 Y118.246 E0.0471
G1 X103.806 Y118.275 E0.0024
G1 X103.655 Y118.443 E0.0142
G1 X103.628 Y118.470 E0.0024
G1 X103.072 Y118.971 E0.0471
G1 X103.042 Y118.995 E0.0024
G1 X102.859 Y119.128 E0.0142
G1 X102.827 Y119.148 E0.0024
G1 X102.179 Y119.523 E0.0471
G1 X102.145 Y119.540 E0.0024
G1 X101.938 Y119.632 E0.0142
G1 X101.903 Y119.646 E0.0024
G1 X101.191 Y119.877 E0.0471
G1 X101.154 Y119.887 E0.0024
G1 X100.933 Y119.934 E0.0142
G1 X100.896 Y119.940 E0.0024
G1 X100.151 Y120.018 E0.0471
G1 X100.113 Y120.020 E0.0024
G1 X99.887 Y120.020 E0.0142
G1 X99.849 Y120.018 E0.0024
G1 X99.132 Y119.943 E0.0453
G1 X99.104 Y119.939 E0.0018
G1 X98.937 Y119.908 E0.0107
G1 X98.910 Y119.901 E0.0018
G1 X98.493 Y119.790 E0.0271
G1 X98.466 Y119.781 E0.0018
G1 X98.306 Y119.725 E0.0107
G1 X98.280 Y119.714 E0.0018
G1 X97.622 Y119.421 E0.0453
G1 X97.588 Y119.404 E0.0024
G1 X97.392 Y119.291 E0.0142
G1 X97.360 Y119.270 E0.0024
G1 X96.754 Y118.830 E0.0471
G1 X96.725 Y118.806 E0.0024
G1 X96.557 Y118.655 E0.0142
G1 X96.530 Y118.628 E0.0024
G1 X96.029 Y118.072 E0.0471
G1 X96.005 Y118.042 E0.0024
G1 X95.872 Y117.859 E0.0142
G1 X95.852 Y117.827 E0.0024
G1 X95.477 Y117.179 E0.0471
G1 X95.460 Y117.145 E0.0024
G1 X95.368 Y116.938 E0.0142
G1 X95.354 Y116.903 E0.0024
G1 X95.123 Y116.191 E0.0471
G1 X95.113 Y116.154 E0.0024
G1 X95.066 Y115.933 E0.0142
G1 X95.060 Y115.896 E0.0024
G1 X94.982 Y115.151 E0.0471
G1 X94.980 Y115.113 E0.0024
G1 X94.980 Y114.887 E0.0142
G1 X94.982 Y114.849 E0.0024
G1 X95.057 Y114.132 E0.0453
G1 X95.061 Y114.104 E0.0018
G1 X95.092 Y113.937 E0.0107
G1 X95.099 Y113.910 E0.0018
G1 X95.210 Y113.493 E0.0271
G1 X95.219 Y113.466 E0.0018
G1 X95.275 Y113.306 E0.0107
G1 X95.286 Y113.280 E0.0018
G1 X95.579 Y112.622 E0.0453
G1 X95.596 Y112.588 E0.0024
G1 X95.709 Y112.392 E0.0142
G1 X95.730 Y112.360 E0.0024
G1 X96.170 Y111.754 E0.0471
G1 X96.194 Y111.725 E0.0024
G1 X96.345 Y111.557 E0.0142
G1 X96.372 Y111.530 E0.0024
G1 X96.928 Y111.029 E0.0471
G1 X96.958 Y111.005 E0.0024
G1 X97.141 Y110.872 E0.0142
G1 X97.173 Y110.852 E0.0024
G1 X97.821 Y110.477 E0.0471
G1 X97.855 Y110.460 E0.0024
G1 X98.062 Y110.368 E0.0142
G1 X98.097 Y110.354 E0.0024
G1 X98.809 Y110.123 E0.0471
G1 X98.846 Y110.113 E0.0024
G1 X99.067 Y110.066 E0.0142
G1 X99.104 Y110.060 E0.0024
G1 X99.678 Y110.000 E0.0362
G1 X99.132 Y109.943 E0.0345
G1 X99.104 Y109.939 E0.0018
G1 X98.937 Y109.908 E0.0107
G1 X98.910 Y109.901 E0.0018
